svgs/sharp-light/align-left.svg

<svg xmlns="http://www.w3.org/2000/svg" viewBox="0 0 448 512"><!--! Font Awesome Pro 6.6.0 by @fontawesome - https://fontawesome.com License - https://fontawesome.com/license (Commercial License) Copyright 2024 Fonticons, Inc. --><path d="M16 48L0 48 0 80l16 0 256 0 16 0 0-32-16 0L16 48zm0 128L0 176l0 32 16 0 416 0 16 0 0-32-16 0L16 176zM0 304l0 32 16 0 256 0 16 0 0-32-16 0L16 304 0 304zM16 432L0 432l0 32 16 0 416 0 16 0 0-32-16 0L16 432z"/></svg>

<svg xmlns="http://www.w3.org/2000/svg" viewBox="0 0 448 512"><!--! Font Awesome Pro 6.4.2 by @fontawesome - https://fontawesome.com License - https://fontawesome.com/license (Commercial License) Copyright 2023 Fonticons, Inc. --><path d="M16 48H0V80H16 272h16V48H272 16zm0 128H0v32H16 432h16V176H432 16zM0 304v32H16 272h16V304H272 16 0zM16 432H0v32H16 432h16V432H432 16z"/></svg>
